X:391
T:39. MORRIS SET#3 (32 bar marches)
T:The British Grenadiers
M:4/4
S:Bacon (CJS MSS)
A:Longborough
O:English
R:Reel
K:G
P:A
D2|\
G2 D2 G2 A2 | B4 A2 Bc | d2 G2 BAGF | (G4 G2)  D2 |\
G2 D2 G2 A2 | B4 A2 Bc | d2 G2 BAGF | (G4 G2) ::
P:B
Bc|\
d3 e  d2 c2 | B2 c2  d2 d2 | e2 e2 dcBA  | G4 F2 D2 |\
G2FG A2GA | B2AB c2Bc | d2 G2 BAGF  | (G4    G2) :|
